src/icons/IconIntroduction/IconIntroduction_size_s.svg

<svg viewBox="0 0 16 16" xmlns="http://www.w3.org/2000/svg">
  <path d="M15 1H13V15H15V1Z" />
  <path
    d="M5.05965 4.46499L7.5942 7.00621L1 6.9941V8.9941L7.59421 9.0062L5.05965 11.5354L6.47386 12.9496L11.4226 8.00621L6.47386 3.05078L5.05965 4.46499Z"
  />
</svg>

<svg viewBox="0 0 16 16" xmlns="http://www.w3.org/2000/svg">
  <path
    d="M15 1h-2v14h2V1zM5.06 4.465l2.534 2.541L1 6.994v2l6.594.012-2.534 2.53 1.414 1.414 4.949-4.944-4.95-4.955L5.06 4.465z"
  />
</svg>
